X:2885
T:Harmonika
C:anon.
O:Israel
Z:Transcribed by Frank Nordberg - http://www.musicaviva.com
F:http://abc.musicaviva.com/tunes/israel/harmonika.abc
M:C
L:1/8
K:Em
zB2AB2B2|zA2B (GF)E2|zF2GA2B2|G/F/E3z4:|
zD2Dd2d2|B3d B>AG2|zD2Dd2c2|B8|
zB2AB2B2|zA2B (GF)E2|zF2GA2B2|G/F/E3z4|
Bc/B/ AG Bc/B/ AG|B2c2BBAG|GGFE z G FE|GG FFE2E2|
Bc/B/ AG Bc/B/ AG|B2c2BBAG|GGFE G2A2|GG FFE2E2|]
W:
W:
W:  From Musica Viva - http://www.musicaviva.com
W:  the Internet center for free sheet music downloads.
